proprietary/assets/icons/functioneel/plus.svg

<svg height="48" width="48" xmlns="http://www.w3.org/2000/svg"><path d="m39.199 20h-11.199v-11.199c0-2.199-1.801-2.801-4-2.801s-4 .602-4 2.801v11.199h-11.199c-2.199 0-2.801 1.801-2.801 4s.602 4 2.801 4h11.199v11.199c0 2.199 1.801 2.801 4 2.801s4-.602 4-2.801v-11.199h11.199c2.199 0 2.801-1.801 2.801-4s-.602-4-2.801-4zm0 0"/></svg>

<svg xmlns="http://www.w3.org/2000/svg" width="48" height="48" xmlns:v="https://vecta.io/nano"><path d="M39.199 20H28V8.801C28 6.602 26.199 6 24 6s-4 .602-4 2.801V20H8.801C6.602 20 6 21.801 6 24s.602 4 2.801 4H20v11.199C20 41.398 21.801 42 24 42s4-.602 4-2.801V28h11.199C41.398 28 42 26.199 42 24s-.602-4-2.801-4zm0 0" fill="rgb(0%,0%,0%)"/></svg>
